X: 59
T: No_63_Song_of_Owl_Dance_(b).krn
N: Derived from No_63_Song_of_Owl_Dance_(b).krn
%%abc-version 2.0
%%abcx-abcm2ps-target-version 5.9.1 (29 Sep 2008)
%%abc-creator hum2abc beta
%%abcx-conversion-date 2019/03/15 08:27:55
%%humdrum-veritas 3462879687
%%humdrum-veritas-data 2305957799
%%linebreak <none>
%%barnumbers 0
L: 1/8
M: 2/4
%%staves {1 2}
V: 1 clef=bass
V: 2 clef=bass
K: G
[V:1] [K:clef=bass][M:2/4]z2G,G,/ z/ | 
[V:2] [K:clef=bass][M:2/4]G,,2G,,2 | 
[V:1] EE E/ z/ E | 
[V:2] G,,2G,,2 | 
[V:1] [M:3/4]E/E3/ B,/ z/ B, E/A,3/ | 
[V:2] [M:3/4]z6 | 
[V:1] [M:2/4]G, z/ G,/ G,/E,3/ | 
[V:2] [M:2/4]z4 | 
[V:1] [M:3/4]E,/E,/E,z2E,E, ]|:  
[V:2] [M:3/4]z6 ]|:  
[V:1] [M:2/4]EE E/ z/ E | 
[V:2] [M:2/4]z4 | 
[V:1] E/E3/ B,/ z/ B, | 
[V:2] z4 | 
[V:1] [M:3/4]E/A,3/ G,/ z/ G, G,/E,3/ | 
[V:2] [M:3/4]z6 | 
[V:1] E,E, E, z E,E, | 
[V:2] z6 | 
[V:1] [M:2/4]A,A, A, z/ A,/ | 
[V:2] [M:2/4]z4 | 
[V:1] [M:3/4]A,/G,3/ E,/ z/ G, G,/E,3/ | 
[V:2] [M:3/4]z6 | 
[V:1] [M:2/4]E,E, E, z | 
[V:2] [M:2/4]z4 | 
[V:1] G,/E,3/ E,E,/ z/ | 
[V:2] z4 | 
[V:1] G,/E,3/ E,E, | 
[V:2] z4 | 
[V:1] [M:3/4]E,E,z2E,E, :|]  
[V:2] [M:3/4]z6 :|]  
[V:1] [M:2/4]E,2z2 |]  
[V:2] [M:2/4]z4 |]  



